X: 20111
T: Jimmy Ward's
R: jig
M: 6/8
K: Gmajor
G3 GAB|AGE GED|G2 G AGE|GED DEF|
G3 GAB|AGE GAB|cBA BGE|1 DED DEF:|2 DED D2B||
|:cBA BAG|ABA AGE|BcA BGE|EDE GAB|
c2 d BAG|ABA ABc|dcA AGE|1 GED D2B:|2 GED DEF||
P:variation of last line (second time):
c2d BAG|ABA ABc|dcA dcA|dcA dcA||

